!!!!SEGMENT: pl-wumfc--r282--002-019_paderewski-ignacy-jan--exercises-2-exercise-19.krn
!!!cenid: 18xx:3194
!!!COM: Paderewski, Ignacy Jan
!!!COM-rismID: pe30029943
!!!CDT: 1860/11/18-1941/06/29
!!!CNT: Polish
!!!GTL: [Exercises 2]
!!!OTL: [Exercise] 19
!!!OMV: 019
!!!PDT:
!!!AGN:
!!!SMS-siglum: PL-Wumfc
!!!SMS-shelfmark: R282
!!!SMS-shelfwork: 002-019 G
!!!SMS-variant:
!!!SMS-altvar:
!!!NIFC-rismSourceID: 1001158933
!!!NIFC-rismChildID: 1001158933
!!!NIFC-islandoraID: pl-wumfc:419
!!!URL-pdf-islandora: https://repozytorium.nifc.pl/islandora/object/pl-wumfc%3A419/datastream/PDF/view
!!!URL-scan: https://polish.musicsources.pl/pl/lokalizacje/galeria/rekopisy/4702 @EN{Scan on Polish Music Sources Website} @PL{Skany w portalu Dziedzictwo Muzyki Polskiej w otwartym dostępie}
!!!ONB-nifc: UWAGA: druga grupa ćwiczeń od skanu 0008
!!!AIN: 2 piano
!!!key: G
!!!filter-modern: sic -sq | shed -k -e "s/LO:N:vis/LO:n:vis:/L" | shed -e "s/TX(.*):t=P:/tx$1:t=P:/LG" | autostem -r | modori -m |
**kern	**kern
*part2	*part1
*group1	*group1
*staff2	*staff1
*I"[Pianoforte]	*I"[Pianoforte]
*I'	*I'
*mI"Pianoforte	*mI"Pianoforte
*mI'pf	*mI'pf
*Ipiano	*Ipiano
*ICklav	*ICklav
*IGsolo	*IGsolo
*clefF4	*clefG2
*k[f#]	*k[f#]
*G:	*G:
!LO:MO:mod=*M4/4	!LO:MO:mod=*M4/4
*M	*M
*^	*^
!LO:TX:t=C. f	!	!	!
4B/	4G\	4g/	4g\
=1	=1	=1	=1
4G/	4G\	4b/	4e\
4A/	4F#\	4a/	4f#\
4G/	4E\	4cc/	4g\
4B/	4D\	4b/	4f#\
=2	=2	=2	=2
4B/	4G\	4ee/	4e\
4c/	4A\	4cc/	[4f#\
!LO:TX:t=P:problem:fermata między główkami nut	!	!	!
4d/	4B;>\	4b;/	4f#\]
4d/	4B\	4b/	4b\
=3	=3	=3	=3
4d/	4B\	[4dd/	4g\
4B/	4B\	4dd/]	[4f#\
4c/	4A\	4cc/	4f#\]
4d/	4G\	4b/	4g\
!!LO:LB:g=original
=4	=4	=4	=4
4e/	4c\	4a/	4e\
4d/	4B\	4b/	4g\
!	!LO:SIC:s=4A	!	!
4c;/	4A;\	4cc;/	4a\
4B/	4G\	4ee/	4g\
=5	=5	=5	=5
4c/	4A\	4cc/	4e\
4d/	4B\	4b/	4d\
4c/	4A\	4a/	4f#\
4B/	4G\	4b/	4g\
=6	=6	=6	=6
4c/	4E\	4ee/	4g\
4A/	4F#\	4dd/	4a\
4B;/	4G\	4b;/	4g\
4d/	4c\	4a/	4f#\
=7	=7	=7	=7
4d/	4B\	4b/	4g\
4B/	4G\	4dd/	4g\
[4c/	4A\	4cc/	[4e\
4c/]	4c\	4a/	4e\]
=8	=8	=8	=8
4d/	4B\	4b/	4g\
4c/	4A\	4cc/	4a\
4d;/	4G\	4b;/	4b\
*v	*v	*	*
*	*v	*v
==	==
*-	*-
!!!system-decoration: {(g1)}
!!!RDF**kern: > = above
!!!RDF**kern: < = below
!!!ENC: Katarzyna Serwa
!!!END: 2021-11-16
!!!ENC: Filip Voros
!!!END: 2021-11-13
!!!ENC-modern: Andrzej Borzym
!!!END-modern: 2022-08-29
!!!YEC: Copyright 2022 Narodowy Instytut Fryderyka Chopina (https://polishscores.org)
!!!YEM: License CC-BY-4.0 (https://creativecommons.org/licenses/by/4.0)
